static/app-icons/dark-theme/ePassMobile.svg

<svg xmlns="http://www.w3.org/2000/svg" xmlns:xlink="http://www.w3.org/1999/xlink" viewBox="0 0 32 32"><defs><linearGradient id="linear-gradient" x1="10" y1="27" x2="10" y2="18" gradientUnits="userSpaceOnUse"><stop offset=".2"/><stop offset=".95" stop-opacity="0"/></linearGradient><linearGradient id="linear-gradient-2" x1="-1255.5" y1="2412.5" x2="-1255.5" y2="2403.5" gradientTransform="translate(1278 -2398)" xlink:href="#linear-gradient"/><linearGradient id="linear-gradient-3" y1="32" x2="32" gradientUnits="userSpaceOnUse"><stop offset=".1" stop-color="#be95ff"/><stop offset=".9" stop-color="#4589ff"/></linearGradient><style>.cls-6{fill:#f4f4f4}</style><mask id="mask" x="0" y="0" width="32" height="32" maskUnits="userSpaceOnUse"><path d="M27.994 22.337l-1.414-1.414-2.122 2.122-1.414-1.415 2.122-2.121-1.415-1.409-2.121 2.116-5.318-5.316a7.957 7.957 0 001.619-3.9H26V9h-8.069A8 8 0 109 17.931V26h2v-8.069a7.946 7.946 0 003.9-1.619l10.973 10.975 1.414-1.414-1.414-1.414zM10 16a6 6 0 116-6 6.006 6.006 0 01-6 6z" fill="#fff"/><path fill="url(#linear-gradient)" d="M8 18h4v9H8z"/><path transform="rotate(-90 22.5 10)" fill="url(#linear-gradient-2)" d="M20.5 5.5h4v9h-4z"/></mask></defs><g id="Layer_2" data-name="Layer 2"><g id="Dark_theme_icons" data-name="Dark theme icons"><g mask="url(#mask)"><path id="Color" fill="url(#linear-gradient-3)" d="M0 0h32v32H0z"/></g><circle class="cls-6" cx="10" cy="10" r="2"/><circle class="cls-6" cx="10" cy="28" r="2"/><circle class="cls-6" cx="28" cy="10" r="2"/></g></g></svg>

<svg xmlns="http://www.w3.org/2000/svg" xmlns:xlink="http://www.w3.org/1999/xlink" viewBox="0 0 32 32"><defs><style>.cls-1{fill:#fff;}.cls-2{fill:url(#linear-gradient);}.cls-3{fill:url(#linear-gradient-2);}.cls-4{mask:url(#mask);}.cls-5{fill:url(#linear-gradient-3);}.cls-6{fill:#f4f4f4;}</style><linearGradient id="linear-gradient" x1="10" y1="27" x2="10" y2="18" gradientUnits="userSpaceOnUse"><stop offset="0.2"/><stop offset="0.95" stop-opacity="0"/></linearGradient><linearGradient id="linear-gradient-2" x1="-1255.5" y1="2412.5" x2="-1255.5" y2="2403.5" gradientTransform="translate(1278 -2398)" xlink:href="#linear-gradient"/><mask id="mask" x="0" y="0" width="32" height="32" maskUnits="userSpaceOnUse"><path class="cls-1" d="M27.994,22.337,26.58,20.923l-2.122,2.122L23.044,21.63l2.122-2.121L23.751,18.1,21.63,20.216,16.312,14.9A7.957,7.957,0,0,0,17.931,11H26V9H17.931A8,8,0,1,0,9,17.931V26h2V17.931a7.946,7.946,0,0,0,3.9-1.619L25.873,27.287l1.414-1.414-1.414-1.414ZM10,16a6,6,0,1,1,6-6A6.006,6.006,0,0,1,10,16Z"/><rect class="cls-2" x="8" y="18" width="4" height="9"/><rect class="cls-3" x="20.5" y="5.5" width="4" height="9" transform="translate(12.5 32.5) rotate(-90)"/></mask><linearGradient id="linear-gradient-3" y1="32" x2="32" gradientUnits="userSpaceOnUse"><stop offset="0.1" stop-color="#be95ff"/><stop offset="0.9" stop-color="#4589ff"/></linearGradient></defs><g id="Layer_2" data-name="Layer 2"><g id="Dark_theme_icons" data-name="Dark theme icons"><g class="cls-4"><rect id="Color" class="cls-5" width="32" height="32"/></g><circle class="cls-6" cx="10" cy="10" r="2"/><circle class="cls-6" cx="10" cy="28" r="2"/><circle class="cls-6" cx="28" cy="10" r="2"/></g></g></svg>
